X:1
T:The Fenians' Escape
M:6/8
L:1/4
K:D
 F/2| A A/2 D E/2| F G/2 A F/2| G F/2 D D/2| D3/2- D F/2| A A/2 D E/2|\
 F G/2 A F/2| G F/2 D D/2| D3/2- D d/2| d d/2 A B/2| =c B/2 A A/2|\
 B G/2 d B/2| A3/2- AF/4-G/4| A A/2 D E/2| F G/2 A F/2| G F/2 D D/2|\
 D3/2- D||
